packages/foundations/assets/icons/functional/images/security/lock_closed_16.svg

<svg width="16" height="16" viewBox="0 0 16 16" fill="none" xmlns="http://www.w3.org/2000/svg">
<g clip-path="url(#clip0_187_245)">
<path fill-rule="evenodd" clip-rule="evenodd" d="M8.00001 2.00687C9.71377 2.00687 11.196 3.40092 11.2 5.20687C11.2012 5.74017 11.2 6.00687 11.2 6.00687C12.0837 6.00687 12.8 6.72321 12.8 7.60687V12.3931C12.8 13.2768 12.0837 13.9931 11.2 13.9931H4.80001C3.91636 13.9931 3.20001 13.2768 3.20001 12.3931V7.60687C3.20001 6.72321 3.91636 6.00687 4.80001 6.00687V5.20687C4.80001 3.43956 6.2327 2.00687 8.00001 2.00687ZM11.2 7.60687H4.80001V12.3931H11.2V7.60687ZM8.00001 8.39313C8.41028 8.39313 8.74842 8.70197 8.79463 9.09984L8.80001 9.19313V10.7892C8.80001 11.231 8.44184 11.5892 8.00001 11.5892C7.58974 11.5892 7.25161 11.2804 7.20539 10.8825L7.20001 10.7892V9.19313C7.20001 8.75131 7.55818 8.39313 8.00001 8.39313ZM8.00001 3.60687C7.15652 3.60687 6.40236 4.28594 6.40001 5.20687C6.39865 5.74017 6.40001 6.00687 6.40001 6.00687H9.60001V5.20687C9.60001 4.32321 8.88367 3.60687 8.00001 3.60687Z" fill="#1A1C1F"/>
</g>
<defs>
<clipPath id="clip0_187_245">
<rect width="16" height="16" fill="white"/>
</clipPath>
</defs>
</svg>

<svg xmlns="http://www.w3.org/2000/svg" width="16" height="16" fill="none"><g clip-path="url(#a)"><path fill="#1A1C1F" fill-rule="evenodd" d="M8 2.007a3.21 3.21 0 0 1 3.2 3.2v.8a1.6 1.6 0 0 1 1.6 1.6v4.786a1.6 1.6 0 0 1-1.6 1.6H4.8a1.6 1.6 0 0 1-1.6-1.6V7.607a1.6 1.6 0 0 1 1.6-1.6v-.8a3.2 3.2 0 0 1 3.2-3.2m3.2 5.6H4.8v4.786h6.4zM8 8.393a.8.8 0 0 1 .795.707l.005.093v1.596a.8.8 0 0 1-1.595.094l-.005-.094V9.193a.8.8 0 0 1 .8-.8m0-4.786c-.843 0-1.598.679-1.6 1.6v.8h3.2v-.8a1.6 1.6 0 0 0-1.6-1.6" clip-rule="evenodd"/></g><defs><clipPath id="a"><path fill="#fff" d="M0 0h16v16H0z"/></clipPath></defs></svg>
